X:1
T:Title
L:1/8
Q:1/4=100
M:6/8
K:Eb
V:1 treble nm="Church Organ, Staff"
V:1
 G G2 GGA | G F2 G E2 | E E2 E B2 | A G2- G G2 | G e2 d c2 | G d2 c B2 | G F2 F G2 | c B2 z3 | %8
w: By~J.~G.~Smith * * * *||||||||
 B B2 A G2 | G G2 F E2 | E C2 DEG | B E2 z3 | e d2 z3 | c B2 G G2 | GGA G E2 | F G2 G G2 | %16
w: ||||||||
[M:4/4] G A2 G G2 F2 | c2 c2 c4 | B4 E4- | E4 z4 |] %20
w: ||||

